loleaflet/images/lc_basicshapes.octagon.svg

<svg xmlns="http://www.w3.org/2000/svg" viewBox="0 0 18 18"><path d="M22,17h-.7l-5,5-.3-.4V22H10v-.4l-.3.4-5-5H4V10h.4L4,9.7,9.7,4l.3.4V4h6v.4l.3-.4L22,9.7l-.4.3H22Zm-2-6.7L15.7,6H10.4L6,10.3v5.3l4.3,4.3h5.3l4.3-4.3V10.3Z" transform="translate(-4 -4)" fill="#696d72" fill-rule="evenodd"/></svg>

<?xml version="1.0" encoding="utf-8"?>
<!-- Generator: Adobe Illustrator 25.0.0, SVG Export Plug-In . SVG Version: 6.00 Build 0)  -->
<svg version="1.1" id="Layer_1" xmlns="http://www.w3.org/2000/svg" xmlns:xlink="http://www.w3.org/1999/xlink" x="0px" y="0px"
	 viewBox="0 0 26 26" enable-background="new 0 0 26 26" xml:space="preserve">
<path fill-rule="evenodd" clip-rule="evenodd" fill="#696D72" d="M22,17h-0.7l-5,5L16,21.6V22h-6v-0.4L9.7,22l-5-5H4v-7h0.4L4,9.7
	L9.7,4L10,4.4V4h6v0.4L16.3,4L22,9.7L21.6,10H22V17z M20,10.3L15.7,6h-5.3L6,10.3v5.3l4.3,4.3h5.3l4.3-4.3V10.3z"/>
</svg>
